src/tshirt-outline.svg

<?xml version="1.0" encoding="utf-8"?>
<!-- Generated by IcoMoon.io -->
<!DOCTYPE svg PUBLIC "-//W3C//DTD SVG 1.1//EN" "http://www.w3.org/Graphics/SVG/1.1/DTD/svg11.dtd">
<svg version="1.1" xmlns="http://www.w3.org/2000/svg" xmlns:xlink="http://www.w3.org/1999/xlink" width="512" height="512" viewBox="0 0 512 512">
<path fill="#000000" d="M178.249 85.534c18.761 22.976 43.909 34.009 77.445 34.572l0.269-0.106h0.269c22.638 0 41.169-4.861 56.653-15.091 7.801-5.154 14.721-11.47 21.029-19.382l104.461 31.367-11.785 32.516-76.655-9.274 2.114 38.133 14.127 254.731h-220.352l16.233-292.71-76.636 8.981-11.767-32.358 104.595-31.379zM320 48c-13.988 27.227-30.771 40.223-63.769 40.223-32.508-0.547-50.509-13.223-64.231-40.223l-160 48 32 88 64-7.5-16 288.5h288l-16-288.5 64 7.75 32-88.25-160-48z"></path>
</svg>

<?xml version="1.0" encoding="utf-8"?>
<!-- Generator: Adobe Illustrator 16.2.1, SVG Export Plug-In . SVG Version: 6.00 Build 0)  -->
<!DOCTYPE svg PUBLIC "-//W3C//DTD SVG 1.1//EN" "http://www.w3.org/Graphics/SVG/1.1/DTD/svg11.dtd">
<svg version="1.1" id="Layer_1" xmlns="http://www.w3.org/2000/svg" xmlns:xlink="http://www.w3.org/1999/xlink" x="0px" y="0px"
	 width="512px" height="512px" viewBox="0 0 512 512" enable-background="new 0 0 512 512" xml:space="preserve">
<path d="M178.249,85.534c18.761,22.976,43.909,34.009,77.445,34.572l0.269-0.106h0.269c22.638,0,41.169-4.861,56.653-15.091
	c7.801-5.154,14.721-11.47,21.029-19.382l104.461,31.367L426.59,149.41l-38.743-4.685l-37.912-4.589l2.114,38.133L366.176,433
	H145.824l14.127-254.729l2.106-37.981l-37.782,4.428l-38.854,4.553l-11.767-32.358L178.249,85.534 M320,48
	c-13.988,27.227-30.771,40.223-63.769,40.223C223.723,87.676,205.722,75,192,48L32,96l32,88l64-7.5L112,465h288l-16-288.5l64,7.75
	L480,96L320,48L320,48z"/>
</svg>
